X:160
T: The Lisheen Jig
T: Farewell To Lisheen
M: 6/8
L: 1/8
R: jig
S: Michelle Mulcahy
K: Dmaj
|dfd cec|{c}BAF AFD|dfd cec| {c}BAF EFA|
|dfd cec|{c}BAF AFD|1 FAB AFD|EFE DFA:|2~F3 AFD |EFE D2E||
|DEF ABd|{d}BAF AFE|DEF ABd|{d}BAF E2F|
|DEF ABd|{d}BAF ABd| D2B AFD|1 EFE DA,B,:|2 EFE DFA||
